X: 11
T: Humours Of Tulla, The
Z: Benjamin Glauser
S: https://thesession.org/tunes/141#setting47025
R: reel
M: 4/4
L: 1/8
K: Gmaj
|:d2Ad BdAB|d2fd edBc|d2Ad BdAd|1 Bdef g2 fe:|2 Bdef g2 fg||
af (3fff df (3fff|af (3fff g2 fg|af (3fff dfed|Bdef g2 fg|
af (3fff bf (3fff|af (3fff g2 fg|af (3fff dfed|Bdef g2fe||

